X: 566
T: The Dark Island
C:Iain McLaughlin
B: good tune book
B: tunes
M:3/4
L:1/8
R: waltz
Q: 1/4=100
K:D
V:1 
Bd \
| "Em"[e4B4]   fe | "Bm"[d4B4] ed | "G"[B3G3] A GB | "D"[A4D4] de \
|     [f3A3] e d2 |     [a4d4] de |    [f3d3] d af | "A"[e4A4]   ||
Bd \
| "Em"[e4B4]   fe | "Bm"[d4B4] ed | "G"[B3G3] A GB | "D"[A4D4] de \
|     [f3d3] d af |  "A"[e4A4] fe | "G"[d3G3] e dB | "D"[d4F4]   |]
fg \
|  "D"[a3d3] f a2 | [f3d3] e d2 |  "G"   B G3    AB | "D"[A4D3] (3cde \
|     [f3A3] f ed | [a4d4]   de | "(Bm)"[f3d3] d af | "A"[e4A4]  ||
Bd \
| "Em"[e4B4]   fe | "Bm"[d4B4]   ed | "G"[B3G3] A GB | "D"[A4D4] de \
|     [f3d3] d af |  "A"[a3d3] e fe | "G"[d3G3] e dB | "D"[d4D4]   |]
% abcbook-tune_id 63dce2ad39c54af54ac9be87
% abcbook-tune_composer_id 
% abcbook-link-0 https://www.youtube.com/watch?v=Rbo5pBmVs68
% abcbook-boost 0
% abcbook-difficulty 0
% abcbook-tags good tune book
% abcbook-tablature 
% abcbook-transpose 
% abcbook-tuning 
% abcbook-lastupdated 1675480293348
% abcbook-soundfonts 
% abcbook-repeats 1
% Rhythm Waltz
% Titles One title
% Transcriptions Only 1 transcription
% Mode major
% Key D
% Time_signature 3/4
% Text Has source text
% Has_accompaniment_chords Has chords

